src/next/cmd/32/shear.svg

<svg height="32" width="32" xmlns="http://www.w3.org/2000/svg" xmlns:xlink="http://www.w3.org/1999/xlink"><linearGradient id="a"><stop offset="0" stop-color="#0968ef"/><stop offset="1" stop-color="#aecffc"/></linearGradient><linearGradient id="b"><stop offset="0" stop-color="#fff"/><stop offset="1" stop-color="#fff" stop-opacity="0"/></linearGradient><linearGradient id="c" gradientUnits="userSpaceOnUse" x1="90.548455" x2="53.657043" xlink:href="#a" y1="24.891147" y2="24.891147"/><linearGradient id="d" gradientTransform="matrix(1.7828021 0 -.5814057 1.3688219 89.643467 -76.211458)" gradientUnits="userSpaceOnUse" x1="22.823559" x2="20" xlink:href="#b" y1="85.750298" y2="109.84906"/><linearGradient id="e" gradientTransform="matrix(.68277649 0 0 .7912688 49.137854 26.349695)" gradientUnits="userSpaceOnUse" x1="80.34671" x2="73.462685" y1="17.268518" y2="107.95493"><stop offset="0" stop-color="#c7cdd7"/><stop offset="1" stop-color="#fff"/></linearGradient><linearGradient id="f" gradientTransform="matrix(1.1446661 0 0 1.4568478 -64.39628 -7.81093)" gradientUnits="userSpaceOnUse" x1="102.31124" x2="74.330322" xlink:href="#b" y1="-5.830213" y2="32"/><linearGradient id="g" gradientTransform="matrix(.66781885 0 0 .64748798 3.859703 -2.621735)" gradientUnits="userSpaceOnUse" x1="-36.272564" x2="124.09152" y1="162.98563" y2="27.999992"><stop offset="0" stop-color="#fff"/><stop offset=".42597079" stop-color="#fff"/><stop offset=".5892781" stop-color="#f1f1f1"/><stop offset=".80219781" stop-color="#eaeaea"/><stop offset="1" stop-color="#dfdfdf"/></linearGradient><linearGradient id="h" gradientTransform="matrix(.07667589 0 0 .09478201 -89.45915 -42.404351)" gradientUnits="userSpaceOnUse" x1="399.77466" x2="399.77466" y1="1164.6696" y2="549.06134"><stop offset="0" stop-color="#b4b4b6"/><stop offset=".5" stop-color="#9c9ca1"/><stop offset="1" stop-color="#cdcdd1"/></linearGradient><linearGradient id="i" gradientTransform="matrix(-.49928121 0 0 .49928121 97.913743 92.0166)" gradientUnits="userSpaceOnUse" x1="113.15723" x2="39.268185" xlink:href="#a" y1="25.786163" y2="25.786163"/><g transform="scale(.25)"><rect fill="url(#h)" height="52" opacity=".75" rx="2.254645" ry="2.017174" transform="scale(-1 1)" width="68" x="-80" y="12"/><rect fill="url(#g)" fill-rule="evenodd" height="44" rx="1.202074" ry="1.052168" width="60" x="16" y="16"/><path d="m49.340675 16.198635c-12.229116 13.73528-23.692787 28.591534-30.834447 46.619128h31.156385c1.745008-17.259246 7.19244-32.850686 14.701804-46.619128z" fill="url(#f)" fill-rule="evenodd"/><rect fill="#81a2d1" height="56.496311" rx="2.288669" ry="2.22196" transform="matrix(1 0 -.39094493 .92041407 0 0)" width="72.884689" x="56.989967" y="43.458702"/><g fill-rule="evenodd"><rect fill="url(#e)" height="47.804569" rx="1.228997" ry="1.18546" transform="matrix(1 0 -.39094493 .92041407 0 0)" width="62.688953" x="62.68895" y="47.804573"/><path d="m46.310917 44.244881c-1.481508 0-3.044722.872323-3.509975 1.967682l-5.868563 13.816546c13.833543 1.659327 47.904949 1.807763 62.567621.213878l5.95941-14.030424c.46526-1.095362-.35692-1.967682-1.83843-1.967682z" fill="url(#d)"/><path d="m93.964919 25.996475-11.982749-9.985624-1.984563 1.984564 3.893765 6.003934-31.891372.0064v3.994251l31.891372-.0064-3.893765 5.903451 1.984563 2.08505 11.982749-9.985632z" fill="url(#c)"/><path d="m38 105.99648 11.982749-9.985629 1.984563 1.984564-3.893765 6.003935 31.891372.006v3.99425l-31.891372-.006 3.893765 5.90345-1.984563 2.08505-11.982749-9.98563z" fill="url(#i)"/></g></g></svg>

<?xml version="1.0" encoding="UTF-8" standalone="no"?>
<!-- Created with Inkscape (http://www.inkscape.org/) -->

<svg
   xmlns:dc="http://purl.org/dc/elements/1.1/"
   xmlns:cc="http://creativecommons.org/ns#"
   xmlns:rdf="http://www.w3.org/1999/02/22-rdf-syntax-ns#"
   xmlns:svg="http://www.w3.org/2000/svg"
   xmlns="http://www.w3.org/2000/svg"
   xmlns:xlink="http://www.w3.org/1999/xlink"
   xmlns:sodipodi="http://sodipodi.sourceforge.net/DTD/sodipodi-0.dtd"
   xmlns:inkscape="http://www.inkscape.org/namespaces/inkscape"
   width="32"
   height="32"
   id="svg2"
   sodipodi:version="0.32"
   inkscape:version="0.92.3 (2405546, 2018-03-11)"
   version="1.0"
   sodipodi:docname="shear.svg"
   inkscape:output_extension="org.inkscape.output.svgz.inkscape"
   inkscape:export-filename="/home/rizmut/Dokumen/Rizmut/Github/libreoffice-style-karasa-jaga/build/next/cmd/32/shear.png"
   inkscape:export-xdpi="96"
   inkscape:export-ydpi="96"
   sodipodi:modified="TRUE">
  <defs
     id="defs4">
    <inkscape:perspective
       sodipodi:type="inkscape:persp3d"
       inkscape:vp_x="0 : 64 : 1"
       inkscape:vp_y="0 : 1000 : 0"
       inkscape:vp_z="128 : 64 : 1"
       inkscape:persp3d-origin="64 : 42.666667 : 1"
       id="perspective45" />
    <linearGradient
       id="linearGradient2399">
      <stop
         id="stop2401"
         offset="0"
         style="stop-color:#0968ef;stop-opacity:1;" />
      <stop
         id="stop2403"
         offset="1"
         style="stop-color:#aecffc;stop-opacity:1;" />
    </linearGradient>
    <linearGradient
       id="linearGradient2431">
      <stop
         style="stop-color:#ffffff;stop-opacity:1;"
         offset="0"
         id="stop2433" />
      <stop
         id="stop2435"
         offset="0.42597079"
         style="stop-color:#ffffff;stop-opacity:1;" />
      <stop
         id="stop2437"
         offset="0.5892781"
         style="stop-color:#f1f1f1;stop-opacity:1;" />
      <stop
         style="stop-color:#eaeaea;stop-opacity:1;"
         offset="0.80219781"
         id="stop2439" />
      <stop
         style="stop-color:#dfdfdf;stop-opacity:1;"
         offset="1"
         id="stop2441" />
    </linearGradient>
    <linearGradient
       id="linearGradient7422">
      <stop
         style="stop-color:#b4b4b6;stop-opacity:1;"
         offset="0"
         id="stop7424" />
      <stop
         id="stop5348"
         offset="0.5"
         style="stop-color:#9c9ca1;stop-opacity:1;" />
      <stop
         id="stop7426"
         offset="1"
         style="stop-color:#cdcdd1;stop-opacity:1;" />
    </linearGradient>
    <linearGradient
       id="linearGradient3310"
       inkscape:collect="always">
      <stop
         id="stop3312"
         offset="0"
         style="stop-color:#ffffff;stop-opacity:1;" />
      <stop
         id="stop3314"
         offset="1"
         style="stop-color:#ffffff;stop-opacity:0;" />
    </linearGradient>
    <linearGradient
       id="linearGradient3314"
       inkscape:collect="always">
      <stop
         id="stop3316"
         offset="0"
         style="stop-color:#ffffff;stop-opacity:1;" />
      <stop
         id="stop3318"
         offset="1"
         style="stop-color:#ffffff;stop-opacity:0;" />
    </linearGradient>
    <linearGradient
       id="linearGradient3323">
      <stop
         style="stop-color:#c7cdd7;stop-opacity:1;"
         offset="0"
         id="stop3325" />
      <stop
         style="stop-color:#ffffff;stop-opacity:1;"
         offset="1"
         id="stop3327" />
    </linearGradient>
    <linearGradient
       inkscape:collect="always"
       xlink:href="#linearGradient2399"
       id="linearGradient2830"
       gradientUnits="userSpaceOnUse"
       gradientTransform="matrix(-0.72842389,0,0,0.72842389,113.44081,-0.035363)"
       x1="113.15723"
       y1="25.786163"
       x2="39.268185"
       y2="25.786163" />
    <linearGradient
       inkscape:collect="always"
       xlink:href="#linearGradient3314"
       id="linearGradient2833"
       gradientUnits="userSpaceOnUse"
       gradientTransform="matrix(-2.4280797,0,0.46606527,1.8642612,54.12052,-123.41012)"
       x1="20"
       y1="78.165009"
       x2="20"
       y2="109.84906" />
    <linearGradient
       inkscape:collect="always"
       xlink:href="#linearGradient3323"
       id="linearGradient2836"
       gradientUnits="userSpaceOnUse"
       gradientTransform="matrix(0.68277649,0,0,0.75070924,-83.745463,20.875931)"
       x1="80.34671"
       y1="17.268518"
       x2="73.462685"
       y2="107.95493" />
    <linearGradient
       inkscape:collect="always"
       xlink:href="#linearGradient3310"
       id="linearGradient2840"
       gradientUnits="userSpaceOnUse"
       gradientTransform="matrix(1.1446661,0,0,1.4568478,-32.396275,-11.81093)"
       x1="102.31124"
       y1="-5.8302126"
       x2="74.330322"
       y2="32" />
    <linearGradient
       inkscape:collect="always"
       xlink:href="#linearGradient2431"
       id="linearGradient2843"
       gradientUnits="userSpaceOnUse"
       gradientTransform="matrix(0.66781885,0,0,0.64748798,35.859703,-6.6217346)"
       x1="-36.272564"
       y1="162.98563"
       x2="124.09152"
       y2="27.999992" />
    <linearGradient
       inkscape:collect="always"
       xlink:href="#linearGradient7422"
       id="linearGradient2846"
       gradientUnits="userSpaceOnUse"
       gradientTransform="matrix(0.07667589,0,0,0.09478201,-121.45915,-46.404351)"
       x1="399.77466"
       y1="1164.6696"
       x2="399.77466"
       y2="549.06134" />
    <linearGradient
       inkscape:collect="always"
       xlink:href="#linearGradient2399"
       id="linearGradient2852"
       gradientUnits="userSpaceOnUse"
       gradientTransform="matrix(0.72842389,0,0,0.72842389,-2.89691,93.054243)"
       x1="113.15723"
       y1="25.786163"
       x2="39.268185"
       y2="25.786163" />
    <linearGradient
       inkscape:collect="always"
       xlink:href="#linearGradient2399"
       id="linearGradient2876"
       gradientUnits="userSpaceOnUse"
       gradientTransform="matrix(0.72842389,0,0,0.72842389,-2.89691,93.054243)"
       x1="113.15723"
       y1="25.786163"
       x2="39.268185"
       y2="25.786163" />
    <linearGradient
       inkscape:collect="always"
       xlink:href="#linearGradient2399"
       id="linearGradient2879"
       gradientUnits="userSpaceOnUse"
       gradientTransform="matrix(0.49928121,0,0,0.49928121,34.051176,12.0166)"
       x1="113.15723"
       y1="25.786163"
       x2="39.268185"
       y2="25.786163" />
    <linearGradient
       inkscape:collect="always"
       xlink:href="#linearGradient3314"
       id="linearGradient2882"
       gradientUnits="userSpaceOnUse"
       gradientTransform="matrix(1.7828021,0,-0.5814057,1.3688219,89.643467,-76.211458)"
       x1="22.823559"
       y1="85.750298"
       x2="20"
       y2="109.84906" />
    <linearGradient
       inkscape:collect="always"
       xlink:href="#linearGradient3323"
       id="linearGradient2885"
       gradientUnits="userSpaceOnUse"
       gradientTransform="matrix(0.68277649,0,0,0.7912688,49.137854,26.349695)"
       x1="80.34671"
       y1="17.268518"
       x2="73.462685"
       y2="107.95493" />
    <linearGradient
       inkscape:collect="always"
       xlink:href="#linearGradient3310"
       id="linearGradient2889"
       gradientUnits="userSpaceOnUse"
       gradientTransform="matrix(1.1446661,0,0,1.4568478,-64.39628,-7.81093)"
       x1="102.31124"
       y1="-5.8302126"
       x2="74.330322"
       y2="32" />
    <linearGradient
       inkscape:collect="always"
       xlink:href="#linearGradient2431"
       id="linearGradient2892"
       gradientUnits="userSpaceOnUse"
       gradientTransform="matrix(0.66781885,0,0,0.64748798,3.859703,-2.6217346)"
       x1="-36.272564"
       y1="162.98563"
       x2="124.09152"
       y2="27.999992" />
    <linearGradient
       inkscape:collect="always"
       xlink:href="#linearGradient7422"
       id="linearGradient2895"
       gradientUnits="userSpaceOnUse"
       gradientTransform="matrix(0.07667589,0,0,0.09478201,-89.45915,-42.404351)"
       x1="399.77466"
       y1="1164.6696"
       x2="399.77466"
       y2="549.06134" />
    <linearGradient
       inkscape:collect="always"
       xlink:href="#linearGradient2399"
       id="linearGradient2899"
       gradientUnits="userSpaceOnUse"
       gradientTransform="matrix(-0.49928121,0,0,0.49928121,97.913743,92.0166)"
       x1="113.15723"
       y1="25.786163"
       x2="39.268185"
       y2="25.786163" />
  </defs>
  <sodipodi:namedview
     id="base"
     pagecolor="#ffffff"
     bordercolor="#666666"
     borderopacity="1.0"
     gridtolerance="10000"
     guidetolerance="10"
     objecttolerance="10"
     inkscape:pageopacity="0.0"
     inkscape:pageshadow="2"
     inkscape:zoom="4.0000001"
     inkscape:cx="54.074089"
     inkscape:cy="32.307329"
     inkscape:document-units="px"
     inkscape:current-layer="g892"
     width="128px"
     height="128px"
     showgrid="true"
     showborder="true"
     inkscape:window-width="1366"
     inkscape:window-height="714"
     inkscape:window-x="0"
     inkscape:window-y="28"
     showguides="true"
     inkscape:guide-bbox="true"
     inkscape:window-maximized="1">
    <inkscape:grid
       id="GridFromPre046Settings"
       type="xygrid"
       originx="0"
       originy="0"
       spacingx="4"
       spacingy="4"
       color="#0000ff"
       empcolor="#0000ff"
       opacity="0.2"
       empopacity="0.4"
       empspacing="2"
       visible="true"
       enabled="true" />
  </sodipodi:namedview>
  <metadata
     id="metadata7">
    <rdf:RDF>
      <cc:Work
         rdf:about="">
        <dc:format>image/svg+xml</dc:format>
        <dc:type
           rdf:resource="http://purl.org/dc/dcmitype/StillImage" />
        <dc:title></dc:title>
      </cc:Work>
    </rdf:RDF>
  </metadata>
  <g
     inkscape:label="Layer 1"
     inkscape:groupmode="layer"
     id="layer1"
     transform="translate(0,-96)">
    <g
       id="g892"
       transform="matrix(0.25,0,0,0.25,0,96)">
      <rect
         transform="scale(-1,1)"
         inkscape:export-ydpi="90"
         inkscape:export-xdpi="90"
         inkscape:export-filename="/home/pinheiro/Desktop/mock2.png"
         style="opacity:0.75;fill:url(#linearGradient2895);fill-opacity:1;fill-rule:nonzero;stroke:none"
         id="rect3281"
         width="68"
         height="52"
         x="-80"
         y="12"
         inkscape:r_cx="true"
         inkscape:r_cy="true"
         ry="2.017174"
         rx="2.2546453" />
      <rect
         ry="1.0521679"
         rx="1.2020736"
         y="16"
         x="16"
         height="44"
         width="60"
         id="rect3283"
         style="fill:url(#linearGradient2892);fill-opacity:1;fill-rule:evenodd;stroke:none" />
      <path
         sodipodi:nodetypes="ccccc"
         id="path3285"
         d="M 49.340675,16.198635 C 37.111559,29.933915 25.647888,44.790169 18.506228,62.817763 h 31.156385 c 1.745008,-17.259246 7.19244,-32.850686 14.701804,-46.619128 z"
         style="fill:url(#linearGradient2889);fill-opacity:1;fill-rule:evenodd;stroke:none"
         inkscape:connector-curvature="0" />
      <rect
         rx="2.2886686"
         ry="2.2219603"
         inkscape:r_cy="true"
         inkscape:r_cx="true"
         y="43.458702"
         x="56.989967"
         height="56.496311"
         width="72.884689"
         id="rect2324"
         style="fill:#81a2d1;fill-opacity:1;fill-rule:nonzero;stroke:none"
         inkscape:export-filename="/home/pinheiro/Desktop/mock2.png"
         inkscape:export-xdpi="90"
         inkscape:export-ydpi="90"
         transform="matrix(1,0,-0.39094493,0.92041407,0,0)" />
      <rect
         style="fill:url(#linearGradient2885);fill-opacity:1;fill-rule:evenodd;stroke:none"
         id="rect2326"
         width="62.688953"
         height="47.804569"
         x="62.68895"
         y="47.804573"
         rx="1.2289973"
         ry="1.1854599"
         transform="matrix(1,0,-0.39094493,0.92041407,0,0)" />
      <path
         id="rect3306"
         d="m 46.310917,44.244881 c -1.481508,0 -3.044722,0.872323 -3.509975,1.967682 L 36.932379,60.029109 C 50.765922,61.688436 84.837328,61.836872 99.5,60.242987 l 5.95941,-14.030424 c 0.46526,-1.095362 -0.35692,-1.967682 -1.83843,-1.967682 z"
         style="fill:url(#linearGradient2882);fill-opacity:1;fill-rule:evenodd;stroke:none"
         sodipodi:nodetypes="ccccccc"
         inkscape:connector-curvature="0" />
      <path
         style="fill:url(#linearGradient2879);fill-opacity:1;fill-rule:evenodd;stroke:none"
         d="M 93.964919,25.996475 81.98217,16.010851 79.997607,17.995415 83.891372,23.999349 52,24.005749 V 28 l 31.891372,-0.0064 -3.893765,5.903451 1.984563,2.08505 11.982749,-9.985632 z"
         id="path2537"
         sodipodi:nodetypes="cccccccccc"
         inkscape:connector-curvature="0" />
      <path
         sodipodi:nodetypes="cccccccccc"
         id="path2897"
         d="m 38,105.99648 11.982749,-9.985629 1.984563,1.984564 -3.893765,6.003935 31.891372,0.006 v 3.99425 l -31.891372,-0.006 3.893765,5.90345 -1.984563,2.08505 L 38,105.99647 Z"
         style="fill:url(#linearGradient2899);fill-opacity:1;fill-rule:evenodd;stroke:none"
         inkscape:connector-curvature="0" />
    </g>
  </g>
</svg>
